svg/Pictogram/pictograms-nps-misc-automobiles.svg

<svg xmlns="http://www.w3.org/2000/svg" viewBox="0 0 256 256"><path d="m0 0c-.541 0-.981-.44-.981-.981v-7.522c0-.54.44-.979.981-.979h7.521c.541 0 .98.439.98.979v7.522c0 .541-.439.981-.98.981h-7.521" fill="#fff" transform="matrix(25.90307 0 0-25.90307 30.605 5.191)"/><path d="m0 0c.65 0 1.18.527 1.18 1.18v7.521c0 .653-.53 1.182-1.18 1.182h-7.521c-.655 0-1.182-.529-1.182-1.182v-7.521c0-.653.527-1.18 1.182-1.18h7.521" transform="matrix(25.90307 0 0-25.90307 225.43 256)"/><path d="m0 0l-.593 1.418c-.024.07-.093.122-.175.122h-3.426c-.079 0-.148-.052-.174-.122l-.591-1.418h4.959m.598-1.188c0 .332-.268.596-.599.596-.33 0-.599-.264-.599-.596 0-.329.269-.597.599-.597.331 0 .599.268.599.597m-5.597-.597c.33 0 .599.268.599.597 0 .332-.269.596-.599.596-.331 0-.599-.264-.599-.596 0-.329.268-.597.599-.597m.554-1.061v-.593c0-.328-.265-.59-.589-.59-.326 0-.589.262-.589.59v.593h-.599v1.93.002c0 .422.284.775.67.881l.69 1.642c.101.241.338.411.614.411h3.534c.277 0 .516-.17.615-.411l.69-1.642c.387-.106.672-.459.672-.881l-.002-.002v-1.93h-.6l.003-.593c0-.328-.265-.59-.589-.59-.327 0-.591.262-.591.59l.002.593h-3.931z" fill="#fff" transform="matrix(25.90307 0 0-25.90307 186.3 108.88)"/></svg>

<?xml version="1.0" encoding="UTF-8" standalone="no"?>
<!-- Created with Inkscape (http://www.inkscape.org/) -->
<svg
   xmlns:dc="http://purl.org/dc/elements/1.1/"
   xmlns:cc="http://creativecommons.org/ns#"
   xmlns:rdf="http://www.w3.org/1999/02/22-rdf-syntax-ns#"
   xmlns:svg="http://www.w3.org/2000/svg"
   xmlns="http://www.w3.org/2000/svg"
   xmlns:sodipodi="http://sodipodi.sourceforge.net/DTD/sodipodi-0.dtd"
   xmlns:inkscape="http://www.inkscape.org/namespaces/inkscape"
   width="256"
   height="256"
   id="svg5294"
   sodipodi:version="0.32"
   inkscape:version="0.46"
   version="1.0"
   sodipodi:docname="pictograms-nps-misc-automobiles-2.svg"
   inkscape:output_extension="org.inkscape.output.svg.inkscape">
  <defs
     id="defs5296">
    <inkscape:perspective
       sodipodi:type="inkscape:persp3d"
       inkscape:vp_x="0 : 526.18109 : 1"
       inkscape:vp_y="0 : 1000 : 0"
       inkscape:vp_z="744.09448 : 526.18109 : 1"
       inkscape:persp3d-origin="372.04724 : 350.78739 : 1"
       id="perspective5302" />
  </defs>
  <sodipodi:namedview
     id="base"
     pagecolor="#ffffff"
     bordercolor="#666666"
     borderopacity="1.0"
     gridtolerance="10000"
     guidetolerance="10"
     objecttolerance="10"
     inkscape:pageopacity="0.0"
     inkscape:pageshadow="2"
     inkscape:zoom="0.98994949"
     inkscape:cx="112.80911"
     inkscape:cy="62.857143"
     inkscape:document-units="px"
     inkscape:current-layer="layer1"
     showgrid="false"
     inkscape:window-width="725"
     inkscape:window-height="674"
     inkscape:window-x="1"
     inkscape:window-y="309" />
  <metadata
     id="metadata5299">
    <rdf:RDF>
      <cc:Work
         rdf:about="">
        <dc:format>image/svg+xml</dc:format>
        <dc:type
           rdf:resource="http://purl.org/dc/dcmitype/StillImage" />
      </cc:Work>
    </rdf:RDF>
  </metadata>
  <g
     inkscape:label="Layer 1"
     inkscape:groupmode="layer"
     id="layer1">
    <g
       id="g5702"
       transform="matrix(25.903066,0,0,-25.903066,30.604576,5.1909744)">
      <path
         d="M 0,0 C -0.541,0 -0.981,-0.44 -0.981,-0.981 L -0.981,-8.503 C -0.981,-9.043 -0.541,-9.482 0,-9.482 L 7.521,-9.482 C 8.062,-9.482 8.501,-9.043 8.501,-8.503 L 8.501,-0.981 C 8.501,-0.44 8.062,0 7.521,0 L 0,0 z"
         style="fill:#ffffff;fill-opacity:1;fill-rule:nonzero;stroke:none"
         id="path5704" />
    </g>
    <g
       id="g5706"
       transform="matrix(25.903066,0,0,-25.903066,225.43438,256)">
      <path
         d="M 0,0 C 0.65,0 1.18,0.527 1.18,1.18 L 1.18,8.701 C 1.18,9.354 0.65,9.883 0,9.883 L -7.521,9.883 C -8.176,9.883 -8.703,9.354 -8.703,8.701 L -8.703,1.18 C -8.703,0.527 -8.176,0 -7.521,0 L 0,0 z"
         style="fill:#000000;fill-opacity:1;fill-rule:nonzero;stroke:none"
         id="path5708" />
    </g>
    <g
       id="g5710"
       transform="matrix(25.903066,0,0,-25.903066,186.30003,108.88074)">
      <path
         d="M 0,0 L -0.593,1.418 C -0.617,1.488 -0.686,1.54 -0.768,1.54 L -4.194,1.54 C -4.273,1.54 -4.342,1.488 -4.368,1.418 L -4.959,0 L 0,0 z M 0.598,-1.188 C 0.598,-0.856 0.33,-0.592 -0.001,-0.592 C -0.331,-0.592 -0.6,-0.856 -0.6,-1.188 C -0.6,-1.517 -0.331,-1.785 -0.001,-1.785 C 0.33,-1.785 0.598,-1.517 0.598,-1.188 M -4.999,-1.785 C -4.669,-1.785 -4.4,-1.517 -4.4,-1.188 C -4.4,-0.856 -4.669,-0.592 -4.999,-0.592 C -5.33,-0.592 -5.598,-0.856 -5.598,-1.188 C -5.598,-1.517 -5.33,-1.785 -4.999,-1.785 M -4.445,-2.846 L -4.445,-3.439 C -4.445,-3.767 -4.71,-4.029 -5.034,-4.029 C -5.36,-4.029 -5.623,-3.767 -5.623,-3.439 L -5.623,-2.846 L -6.222,-2.846 L -6.222,-0.916 L -6.222,-0.914 C -6.222,-0.492 -5.938,-0.139 -5.552,-0.033 L -4.862,1.609 C -4.761,1.85 -4.524,2.02 -4.248,2.02 L -0.714,2.02 C -0.437,2.02 -0.198,1.85 -0.099,1.609 L 0.591,-0.033 C 0.978,-0.139 1.263,-0.492 1.263,-0.914 L 1.261,-0.916 L 1.261,-2.846 L 0.661,-2.846 L 0.664,-3.439 C 0.664,-3.767 0.399,-4.029 0.075,-4.029 C -0.252,-4.029 -0.516,-3.767 -0.516,-3.439 L -0.514,-2.846 L -4.445,-2.846 z"
         style="fill:#ffffff;fill-opacity:1;fill-rule:nonzero;stroke:none"
         id="path5712" />
    </g>
  </g>
</svg>
